public/img/qa.svg

<?xml version="1.0" encoding="UTF-8" standalone="no"?>
<svg width="97px" height="97px" viewBox="0 0 97 97" version="1.1" xmlns="http://www.w3.org/2000/svg" xmlns:xlink="http://www.w3.org/1999/xlink" xmlns:sketch="http://www.bohemiancoding.com/sketch/ns">
    <!-- Generator: Sketch 3.4.2 (15855) - http://www.bohemiancoding.com/sketch -->
    <title>qa</title>
    <desc>Created with Sketch.</desc>
    <defs></defs>
    <g id="Page-1" stroke="none" stroke-width="1" fill="none" fill-rule="evenodd" sketch:type="MSPage">
        <circle id="Oval-1-Copy" fill="#FFD400" sketch:type="MSShapeGroup" cx="48.5" cy="48.5" r="48.5"></circle>
        <path d="M40.255,56.45 C40.855003,55.6399959 41.3349982,54.635006 41.695,53.435 C42.0550018,52.234994 42.235,50.7800086 42.235,49.07 C42.235,47.659993 42.0775016,46.2950066 41.7625,44.975 C41.4474984,43.6549934 40.9450035,42.4775052 40.255,41.4425 C39.5649966,40.4074948 38.6650056,39.5825031 37.555,38.9675 C36.4449944,38.3524969 35.0950079,38.045 33.505,38.045 C31.9149921,38.045 30.5650056,38.3524969 29.455,38.9675 C28.3449944,39.5825031 27.4450034,40.4074948 26.755,41.4425 C26.0649966,42.4775052 25.5625016,43.6549934 25.2475,44.975 C24.9324984,46.2950066 24.775,47.659993 24.775,49.07 C24.775,50.4200067 24.9324984,51.7324936 25.2475,53.0075 C25.5625016,54.2825064 26.0649966,55.4299949 26.755,56.45 C27.4450034,57.4700051 28.3449944,58.2874969 29.455,58.9025 C30.5650056,59.5175031 31.9149921,59.825 33.505,59.825 C34.2550038,59.825 34.824998,59.7950003 35.215,59.735 C35.6050019,59.6749997 35.9799982,59.5550009 36.34,59.375 L33.325,56.63 L36.61,53.12 L40.255,56.45 Z M41.29,63.875 C39.1599894,65.1050062 36.5650153,65.72 33.505,65.72 C31.0449877,65.72 28.8325098,65.2925043 26.8675,64.4375 C24.9024902,63.5824957 23.2450068,62.4050075 21.895,60.905 C20.5449932,59.4049925 19.5100036,57.6425101 18.79,55.6175 C18.0699964,53.5924899 17.71,51.4100117 17.71,49.07 C17.71,46.669988 18.0699964,44.4425103 18.79,42.3875 C19.5100036,40.3324897 20.5449932,38.5400077 21.895,37.01 C23.2450068,35.4799923 24.9024902,34.2800044 26.8675,33.41 C28.8325098,32.5399957 31.0449877,32.105 33.505,32.105 C35.9950124,32.105 38.2149903,32.5399957 40.165,33.41 C42.1150098,34.2800044 43.7649932,35.4799923 45.115,37.01 C46.4650068,38.5400077 47.4999964,40.3324897 48.22,42.3875 C48.9400036,44.4425103 49.3,46.669988 49.3,49.07 C49.3,51.4100117 48.9400036,53.58499 48.22,55.595 C47.4999964,57.6050101 46.4650068,59.3749923 45.115,60.905 L49.12,64.55 L45.835,67.97 L41.29,63.875 Z M62.215,52.58 L66.4,40.79 L66.49,40.79 L70.54,52.58 L62.215,52.58 Z M62.89,32.87 L50.74,65 L57.85,65 L60.37,57.845 L72.385,57.845 L74.815,65 L82.15,65 L70.135,32.87 L62.89,32.87 Z" id="QA" fill="#000000" sketch:type="MSShapeGroup"></path>
    </g>
</svg>

<svg width="97" height="97" viewBox="0 0 97 97" xmlns="http://www.w3.org/2000/svg"><title>qa</title><g fill="none" fill-rule="evenodd"><circle fill="#FF850C" cx="48.5" cy="48.5" r="48.5"/><path d="M40.255 56.45c.6-.81 1.08-1.815 1.44-3.015.36-1.2.54-2.655.54-4.365 0-1.41-.157-2.775-.472-4.095-.316-1.32-.818-2.497-1.508-3.532-.69-1.036-1.59-1.86-2.7-2.475-1.11-.616-2.46-.923-4.05-.923-1.59 0-2.94.307-4.05.922-1.11.616-2.01 1.44-2.7 2.476-.69 1.035-1.192 2.212-1.508 3.532-.315 1.32-.472 2.685-.472 4.095 0 1.35.157 2.662.473 3.938.315 1.275.817 2.422 1.507 3.442s1.59 1.837 2.7 2.453c1.11.615 2.46.922 4.05.922.75 0 1.32-.03 1.71-.09.39-.06.765-.18 1.125-.36l-3.015-2.745 3.285-3.51 3.645 3.33zm1.035 7.425c-2.13 1.23-4.725 1.845-7.785 1.845-2.46 0-4.672-.427-6.638-1.282-1.965-.856-3.622-2.033-4.972-3.533-1.35-1.5-2.385-3.262-3.105-5.288-.72-2.025-1.08-4.207-1.08-6.547 0-2.4.36-4.627 1.08-6.682.72-2.056 1.755-3.848 3.105-5.378 1.35-1.53 3.007-2.73 4.973-3.6 1.965-.87 4.177-1.305 6.637-1.305 2.49 0 4.71.435 6.66 1.305 1.95.87 3.6 2.07 4.95 3.6 1.35 1.53 2.385 3.322 3.105 5.378.72 2.055 1.08 4.282 1.08 6.682 0 2.34-.36 4.515-1.08 6.525-.72 2.01-1.755 3.78-3.105 5.31l4.005 3.645-3.285 3.42-4.545-4.095zM62.215 52.58L66.4 40.79h.09l4.05 11.79h-8.325zm.675-19.71L50.74 65h7.11l2.52-7.155h12.015L74.815 65h7.335L70.135 32.87H62.89z" fill="#000"/></g></svg>
